icons/icn_info.svg

<svg width="24" xmlns="http://www.w3.org/2000/svg" height="24" id="screenshot-e387bb83-ae60-800e-8006-366ae6e63e4a" viewBox="0 0 24 24" xmlns:xlink="http://www.w3.org/1999/xlink" fill="none" version="1.1"><g id="shape-e387bb83-ae60-800e-8006-366ae6e63e4a"><g class="frame-container-wrapper"><g class="frame-container-blur"><g class="frame-container-shadows"><g fill="none"><g class="fills" id="fills-e387bb83-ae60-800e-8006-366ae6e63e4a"><rect rx="0" ry="0" x="0" y="0" width="24" height="24" transform="matrix(1, 0, 0, 1, 0, 0)" class="frame-background"/></g><g class="frame-children"><g id="shape-e387bb83-ae60-800e-8006-366ae6e63e66" rx="0" ry="0" style="fill: rgb(0, 0, 0);"><g id="shape-e387bb83-ae60-800e-8006-366ae6e63e67"><g class="fills" id="fills-e387bb83-ae60-800e-8006-366ae6e63e67"><path d="M14.648249626159668,1.0000231266021729C15.368708610534668,1.0000231266021729,15.905329704284668,1.2146227359771729,16.258602142333984,1.6439440250396729C16.625789642333984,2.073143243789673,16.809383392333984,2.573997735977173,16.809383392333984,3.146385431289673C16.809383392333984,3.876121759414673,16.526912689208984,4.520042896270752,15.961970329284668,5.078026294708252C15.410944938659668,5.636131763458252,14.726130485534668,5.915062427520752,13.906794548034668,5.915062427520752C13.228816032409668,5.915062427520752,12.699275016784668,5.721947193145752,12.317927360534668,5.335594654083252C11.936335563659668,4.934959888458252,11.752741813659668,4.398338794708252,11.766901969909668,3.725853204727173C11.766901969909668,3.153465509414673,12.007136344909668,2.559715509414673,12.487360954284668,1.9443590641021729C12.967585563659668,1.3148424625396729,13.687800407409668,1.0000231266021729,14.648249626159668,1.0000231266021729ZM10.178034782409668,23.000022888183594C9.598933219909668,23.000022888183594,9.153864860534668,22.742454528808594,8.843073844909668,22.227317810058594C8.532526969909668,21.726463317871094,8.581843376159668,20.681907653808594,8.991511344909668,19.093650817871094L10.305232048034668,13.513206481933594C10.418025016784668,13.069602966308594,10.474665641784668,12.754783630371094,10.474665641784668,12.568748474121094C10.489069938659668,12.368431091308594,10.432185173034668,12.268333435058594,10.305232048034668,12.268333435058594C10.135554313659668,12.268333435058594,9.747370719909668,12.396995544433594,9.139948844909668,12.654685974121094C8.546687126159668,12.912254333496094,8.023982048034668,13.184104919433594,7.572077751159668,13.470237731933594L7.000056266784668,12.504417419433594C7.706355094909668,11.903465270996094,8.426569938659668,11.366844177246094,9.161189079284668,10.894676208496094C9.881403923034668,10.436790466308594,10.573542594909668,10.043235778808594,11.237360954284668,9.714134216308594C11.901179313659668,9.385032653808594,12.508601188659668,9.134666442871094,13.059382438659668,8.962913513183594C13.596247673034668,8.791160583496094,14.041071891784668,8.705345153808594,14.394099235534668,8.705345153808594C14.959284782409668,8.705345153808594,15.298151969909668,9.034446716308594,15.411189079284668,9.692649841308594C15.524226188659668,10.336570739746094,15.432185173034668,11.195091247558594,15.135798454284668,12.268333435058594L13.652644157409668,18.127830505371094C13.525446891784668,18.657249450683594,13.476130485534668,19.029319763183594,13.504206657409668,19.243919372558594C13.546687126159668,19.444358825683594,13.631403923034668,19.544334411621094,13.758601188659668,19.544334411621094C13.928034782409668,19.544334411621094,14.259821891784668,19.437034606933594,14.754206657409668,19.222434997558594C15.262751579284668,18.993553161621094,15.792292594909668,18.650047302246094,16.343318939208984,18.192161560058594L17.000057220458984,19.093650817871094C16.322078704833984,19.809104919433594,15.637019157409668,20.410057067871094,14.944880485534668,20.896629333496094C14.252741813659668,21.397361755371094,13.596003532409668,21.798118591308594,12.974665641784668,22.098533630371094C12.367243766784668,22.413352966308594,11.823542594909668,22.642234802246094,11.343317985534668,22.785423278808594C10.848933219909668,22.928489685058594,10.460505485534668,23.000022888183594,10.178034782409668,23.000022888183594Z" style="font-size: 40px; line-height: 1.25; font-family: locator; white-space: pre; fill: rgb(0, 0, 0); fill-opacity: 1;"/></g></g></g></g></g></g></g></g></g></svg>

<svg fill="none" viewBox="0 0 24 24"><g class="frame-container-wrapper"><g class="frame-container-blur"><g class="frame-container-shadows"><g class="fills"><rect width="24" height="24" class="frame-background" rx="0" ry="0"/></g><g class="frame-children"><path fill="#000" d="M14.6482 1c.7205 0 1.2571.2146 1.6104.644.3672.4291.5508.93.5508 1.5024 0 .7297-.2825 1.3736-.8474 1.9316-.551.5581-1.2359.837-2.0552.837-.678 0-1.2075-.193-1.5889-.5794-.3816-.4006-.5652-.9373-.551-1.6097 0-.5724.2402-1.1662.7205-1.7815C12.9676 1.3148 13.6878 1 14.6482 1ZM10.178 23c-.579 0-1.0241-.2575-1.335-.7727-.3105-.5008-.2612-1.5454.1485-3.1336l1.3137-5.5805c.1128-.4436.1695-.7584.1695-.9445.0144-.2003-.0425-.3004-.1695-.3004-.1696 0-.5578.1287-1.1653.3864-.5932.2576-1.116.5294-1.5678.8155L7 12.5044c.7063-.601 1.4265-1.1376 2.161-1.6097.7203-.458 1.4124-.8515 2.0763-1.1806.6638-.329 1.2712-.5794 1.822-.7512.5368-.1717.9817-.2576 1.3347-.2576.5652 0 .904.3291 1.017.9873.1131.644.021 1.5025-.2753 2.5757l-1.4832 5.8595c-.1272.5294-.1765.9015-.1484 1.1161.0425.2005.1272.3004.2544.3004.1694 0 .5012-.1073.9956-.3219.5086-.2288 1.038-.5724 1.5891-1.0302l.6568.9015c-.678.7154-1.363 1.3164-2.0552 1.803-.6922.5007-1.3489.9014-1.9702 1.2018-.6075.3149-1.1512.5437-1.6314.687-.4944.143-.8828.2145-1.1653.2145Z" class="fills" font-family="locator" font-size="40" style="line-height:1.25;white-space:pre"/></g></g></g></g></svg>
